X: 8
T:Marmaduke's Hornpipe
% Nottingham Music Database
S:via PR
M:4/4
L:1/4
K:D
"D"AA/2A/2 A/2d/2B/2A/2|FF/2F/2 DD|"Em"EA EA|"A7"EA EA|
"D"AA/2A/2 A/2d/2B/2A/2|"D"FF/2F/2 DD|"Em"EA "A7"E3/2E/2|"D"FE D2::
"D"de f/2e/2f/2e/2|"G"de g/2e/2g/2e/2|"D"de fd/2f/2|"Em"eA "A7"A/2B/2c/2A/2|
"D"de f/2e/2f/2e/2|"G"de g3/2a/2|"Em"ba "A7"ge|[1 "D"d2 d2:|[2 "D" d2 dz|<end>
<start>
